!!!SOCIAL_FUNCTION:	songs of the drum religion
!!!PDT:	1932
!!!OTL: No_98_Song_During_Which_Members_of_the_Council_Dance.krn
!!!REG: Wisconsin
!!!LANG: Non-Tone
!!!LING_GROUP: Algonquin
**kern
*staff1
=1-
*clefF4
*k[]
*M2/4
4r
8r
16r
16A\
=2
8.c\L
16c\Jk
12B\L
12B\
12B\J
=3||
*M3/4
4c\
16A\LK
8.A\J
8A\
16r
16A\
=4||
*M2/4
8.c\L
16c\Jk
12B\L
12B\
12B\J
=5||
*M3/4
4c\
16A\LK
8.A\J
8A\
16r
16A\
=6!|:
*M2/4
8.B\L
16B\Jk
12A\L
12G\
12A\J
=7
8.A\L
16A\Jk
4E\
=8
8.D/L
16C/Jk
8D\L
16E\L
16D\JJ
=9
4C/
8C/
8r
=10||
*M3/4
8.D/L
16C/Jk
16C/LK
8.AA/J
4AA/
=11
4C/
16AA/LK
8AA/J
16r
8.AA/L
16AA/Jk
=12||
*M2/4
2AA/
=13
4AA/
4r
=14
16A\LK
8.A\J
8A\
16r
16A\
==:|!
*-
